X:1
T:Gli Angeli eletti
T:Giovanni Animuccia
T:Source : Secondo libro delle Laude spirituali a tre et a quattro voci---Roma---A.Gardano---1583. Editor : André Vierendeels (29/11/17). Notes : Original clefs : C1, C1, F4 Editorial accidentals above the staff Text by Vittoria Colonna (Sonetti spirituali XXIV) Music compiled by Francisco Soto de Langa 
T:Gli Angeli eletti
T:©
T:©
C:Giovanni Animuccia
Z:©
%%score [ 1 2 3 ]
L:1/8
Q:1/4=120
M:2/2
K:F
V:1 treble nm="Soprano 1" snm="S 1"
V:2 treble nm="Soprano 2" snm="S 2"
V:3 bass nm="Bass" snm="B"
V:1
 A6 A2 | A4 B4- | B4 c4 | d4 c4 | A6 B2 | c6 BA | =B8 | z4 d4- | d2 d2 e4 | c4 d4 | c6 B2 | A4 B4 | %12
w: Gl'An- ge-|li'e- let|_ ti'al|gran ben'|in- fi-|ni- * *|to,|bra-|* man hog-|gi sof-|frir pe-|no- sa|
w: Pian- ge|l'an- ti-|* ca|ma- dre'il|gu- sto'ar-|di- * *|to,|ch'à|_ fi- gli|suoi del|ciel chiu-|se le|
 G8- | G4 F2 E2 | ^F8 | z4 B4 | A6 A2 | A2 A2 A4- | A2 B2 c2 d2 | c8 | d8 | z4 d4 | c4 B4 | A4 B4 | %24
w: mor-||te,|ac-|cio- nel-|la ce- le-|* st'em- pi- rea|cor-|te,|non|sia piu'il|ser- vo|
w: por-||te,|e|le due|man piag- ga-|* te'or so- no|scor-|te,|da|ri- dur-|ne'al cam-|
 c8 | d8 | B4 c4 | A8 | G8 :| %29
w: ch'il|si|gnor gra-|di-|to.|
w: min|per|lei smar-|ri-|to.|
V:2
 F6 F2 | F4 G4- | G4 A4 | B4 G4 | F4 E2 D2 | E4 F4 | G8 |"^b" z4 B4- | B2 B2 c4 | A4 B4 | A6 G2 | %11
w: Gl'An- ge-|li'e- let-|* ti'al|gran ben'|in- fi- *|* ni-|to,|bra-|* man hog-|gi sof-|frir pe-|
w: As- con-|de'il sol|_ la|sua lu-|ci- * *|da chio-|ma,|spez-|* zan- s'i|sas- si|vi- vi,|
 F4 F2 D2- | D2 CB, C4 | D8- | D8 | z4 G4 | F6 F2 | F2 F2 F4- | F2 G2 A2 B2- | B2 AG A4 | B8 | z8 | %22
w: no- sa mor-||te,|_|ac-|cio- nel-|la ce- le-|* st'em- pi- rea|_ _ _ cor-|te,||
w: a- pron- s'i-|* * * mon-|ti,|_|tre-|ma la|ter- ra'eel ciel,|_ tur- ban- si|_ _ _ l'ac-|que,||
 z4 d4 | c4 B4 | A6 A2 | A4 A4 | G4 G4- |"^#" G4 F4 | G8 :| %29
w: non|sia piu'il|ser- vo|ch'il si-|gnor gra-|* di-|to.|
w: tre-|ma la|ter- ra'e'l|ciel, tur-|ban- si|_ l'ac-|que.|
V:3
 D,6 D,2 | D,4 G,4- | G,4 F,4 | B,,4 C,4 | D,4 C,2 B,,2 | A,,8 | G,,8 | z4 G,4- | G,2 G,2 C,4 | %9
w: Gl'An- ge-|li'e- let-|* ti'al|gran ben'|in- fi- *|ni-|to,|bra-|* man hog-|
w: Pian- gon|gli spi-|* ri-|ti'al no-|stro mal si|pron-|ti,|del|_ le ca-|
 F,4 B,,4 | F,6 G,2 | D,4 B,,4 | _E,8 | D,8- | D,8 | z4 G,4 | D,6 D,2 | D,2 D,2 D,4- | %18
w: gi sof-|frir pe-|no- sa|mor-|te,|_|ac-|cio- nel-|la ce- le-|
w: ter- ne|lor l'ag-|giun- ta|so-|ma,|_|non|pian- ge|l'uom, che pur|
 D,2 G,2 F,2 B,,2 | F,8 | B,,8 | B,8 | A,4 B,4 | F,4 G,4 | F,8 | D,8 | G,4 C,4 | D,8 | G,,8 :| %29
w: * st'em- pi- rea|cor-|te,|non|sia piu'il|ser- vo|ch'il|si-|gnor gra-|di-|to.|
w: _ pian- gen- do|nac-|que,|non|pian- ge|l'uom, che|pur|pian-|gen- do|so-|ma.|

